X:1
T:Nobody's Darlin' But Mine
T:Nobody's darling but mine
T:Jimmie Davis
C:Jimmie Davis
Z:All Rights Reserved
L:1/4
M:3/4
K:C
V:1 treble 
%%MIDI program 4
V:1
 z2"^N.C." G |"C" e e e | e d c |"F" F A c |"G7" B2 z || z2 G |"C" e e e | e d c |"F" F A2- | %9
w: |||||Come|sit by my|side lit- tle|dar- lin|
 A2 e |"G7" f e d | G B3/2 A/ |"C" G3- | G3 | e e e | e d c |"F" F A2- | A2 f |"G7" f e d | G B d | %20
w: _ Come|lay your cool|hand on my|brow|_|pro- mise me|that you will|nev- er|_ be|no- bod- y's|dar- lin but|
"C" c3- | c3 | e e e | e d c |"F" F A2- | A2 e |"G7" f e d | G B3/2 A/ |"C" G3- | G3 | e e e | %31
w: mine|_|No- bod- y's|dar- lin but|mine love|_ be|hon- est be|faith- ful be|kind|_|prom- ise me|
 e d c |"F" F A2- | A2 f |"G7" f e d | G B d |"C" c e g | c'3/2 z/ z |] %38
w: that you will|nev- er|_ be|no- bod- y's|dar- lin but|mine. _ _|_|

